X:22
T: Es war einmal ein Mdchen (Band 1), S. 66
N: P0796
O: Lothringen
S: PINCK, Louis: Verklingende Weisen, Bd 1, Metz 1928]
R: Liebe, Standesunterschied, Hochzeit, Tod]
M: 2/4
L: 1/16
K: A
E2 | A2B2=c2B2 | A4=G2
G2 | A2B2=c2A2 | B4z2
AB | =c2c2d2d2 | e2z2d2z2 | =c2B2A2
B2 | =ccccB2B2 | A4z2
AB | =c2c2d2d2 | e2z2d2z2 | =c2B2A2
B2 | =ccccB2B2 | A4z2

